X: 41428
T: Twisted Fridge
R: reel
M: 4/4
K: Bminor
|:dBBA Bcde|f2bf afec|dBBA BcdB|A2FA B2B2|
dBBA Bcde|f2bf afec|f2bf afec|dBBA B2B2:|
|:fabf a2fa|fece fece|fabf a2fa|fece f2f2|
fabf a2fa|fece fece|fabf afec|dBBA B2B2:|

